X: 09067
T: The LEMON CAKE
C: Bob McQuillen 1 Feb 91
B: Bob's Note Book 9 #67
%R: reel
Z: 2018 John Chambers <jc:trillian.mit.edu>
M: C
L: 1/8
K: G
Bc \
| d2ga gdBd | cedc B2GD | ECEG DBcB | ABc^c edef |
| gfga gdBd | cedc B2GD | EGcB AGFE | D2G2 G2 :|
|: GA \
| Bcde d2dg | fgaf gedc | Bcde d2dc | BGcB A2Bc |
| dBce dBdg | bagf gfed | edef gage | dBAB G2 :|
%%begintext align
%% D G Tolman, wife of Bill, tries to keep
%% my stomach fill(ed),  with her wondrous
%% lemon cake; I eat so much I make
%% it ache. Thanks, D G! :-)
%%endtext

%%sep 1 1 500

%%sep 1 1 500

